X: 32413
T: Piper's Despair, The
R: reel
M: 4/4
K: Edorian
EFGA BAFA|d2 AB dBAF|D2 DF ADFA|d2 AB dBAF|
EFGA BAFA|d2 AB dBAF|DEFA dfaf|gfed Be e2:|
e2(3gfe begf|efga bfaf|d ~f3 a ~f3|defd edBd|
e2(3gfe begf|efga bfaf|dcdf a2 af|gfed Be e2:|

